X: 020643
T: Ballyboley
M: 4/4
L: 1/8
S: Luke O'Malley vol 1 (from Andy McGann-Larry Redican)
Z: B.Black
R: hornpipe
K: A
cd|eagf edcB|ABcA F2 cd|eaga ecAc|B^ABc B2 cd |
eagf edcB|AB (3cBA F2 AB|caec BEGB |1 AGAB A2 cd :|2\
AGAB A2 ab ||
c'ac'b agef|cefg f2 cd|eaga ecAc|BEGA BdcB|
eagf edcB|ABcA F2 AB|caec BEGB |1 AGAB A2 ab :|2\
AGAB A2 z2 ||
